src/assets/img/arrow.svg

<svg height="15" viewBox="0 0 20 15" width="20" xmlns="http://www.w3.org/2000/svg"><path d="m13.5457505 3.3004033 6.1538462 6.15384616c.4005377.40053773.4005377 1.04993774 0 1.45047544l-6.1538462 6.1538462c-.4005377.4005377-1.0499377.4005377-1.4504754 0-.4005377-.4005378-.4005377-1.0499378 0-1.4504755l4.4027249-4.4030956-15.47235897.0001282c-.5664459 0-1.02564103-.4591951-1.02564103-1.025641 0-.56644592.45919513-1.02564105 1.02564103-1.02564105l15.47235897-.00084615-4.4027249-4.40212125c-.4005377-.40053774-.4005377-1.04993771 0-1.45047545.4005377-.40053773 1.0499377-.40053773 1.4504754 0z" fill="#fff" transform="translate(0 -3)"/></svg>

<?xml version="1.0" encoding="UTF-8"?>
<svg width="20px" height="15px" viewBox="0 0 20 15" version="1.1" xmlns="http://www.w3.org/2000/svg" xmlns:xlink="http://www.w3.org/1999/xlink">
    <g id="Landing-Page" stroke="none" stroke-width="1" fill="none" fill-rule="evenodd">
        <g id="Landing-page-design" transform="translate(-1362.000000, -3102.000000)" fill="#fff" fill-rule="nonzero">
            <g id="Group-48" transform="translate(0.000000, 2700.000000)">
                <g id="Group-40" transform="translate(1190.000000, 341.000000)">
                    <g id="Group-30">
                        <g id="Group-36" transform="translate(20.000000, 27.000000)">
                            <g id="Group-35">
                                <g id="Glyph-/-arrows-/-action-/-white" transform="translate(152.000000, 31.000000)">
                                    <path d="M13.5457505,3.3004033 L19.6995967,9.45424946 C20.1001344,9.85478719 20.1001344,10.5041872 19.6995967,10.9047249 L19.6995967,10.9047249 L13.5457505,17.0585711 C13.1452128,17.4591088 12.4958128,17.4591088 12.0952751,17.0585711 C11.6947374,16.6580333 11.6947374,16.0086333 12.0952751,15.6080956 L12.0952751,15.6080956 L16.498,11.205 L1.02564103,11.2051282 C0.459195128,11.2051282 0,10.7459331 0,10.1794872 C0,9.61304128 0.459195128,9.15384615 1.02564103,9.15384615 L16.498,9.153 L12.0952751,4.75087875 C11.6947374,4.35034101 11.6947374,3.70094104 12.0952751,3.3004033 C12.4958128,2.89986557 13.1452128,2.89986557 13.5457505,3.3004033 Z" id="Combined-Shape"></path>
                                </g>
                            </g>
                        </g>
                    </g>
                </g>
            </g>
        </g>
    </g>
</svg>
